X: 1
T: Ninety-Nine
C: Randal Bays
Z: Ian Varley
S: https://thesession.org/tunes/2108#setting38685
R: march
M: 4/4
L: 1/8
K: Emin
B/c/|BE GA B>c BG|A>B AF BE GB/c/|
BE GA B>c BG|AF dF E2E:|
|:B/d/|eB Bd/e/ fe d>B|d>e dB AF AB/d/|
eB Bd/e/ fe dB|dB AF E2E:|

